X: 34
T: He Comes
N: Derived from pawnee34.krn
O: Oklahoma, U.S.A.
N: from Pawnee Music by Frances Densmore, 1926
Z: transcribed to **kern format by David Huron, August 2000
C: Skidi and Chaui Bands, 1919
L: 1/8
M: 3/4
Q: 1/4=88
K: A clef=bass
%%linebreak <none>
F F [I:setbarnb 1]| 
F2(F E) F F | 
C C (C B,) (C B,) | 
A, A,A,2A, A, | 
C2(C B,) C B, | 
A, A, (A, F,) (A, F,) | 
F, F,F,2F, F, | 
A,2(A, F,) (A, F,) | 
F, F,2<F,2F, | 
F,6 | 
F,4F, F, | 
(C2-C B,) (C B,) | 
A, A,A,2B, B, | 
A, A,A,2F, F, | 
F, F,F,2F, F, | 
(A,2>F,2) A, A, | 
F, F,F,2F,3/ F,/ | 
F,6 | 
F,4 |]  



